X:12
T:The Road Around the River
C:Roy Watrous, 1984
S:The Watrous Book, 1992
M:2/4
L:1/16
Q:1/4=90
K:D
%%MIDI program 72
%%MIDI transpose 8
%%MIDI ratio 3 1
FG|A2FG A2Tf2|edcd e2fg|a2b2 a2gf|edcB AGFG|A2FG A2Tf2|
edcd e2fg|abaf gecA|dfec d2::cd|e2A2 A2ag|fgef d2fg|
abaf gfed|edcB AGFG|A2FG A2Tf2|edcd e2fg|abaf gecA|dfec d2:|]

